X:1
T:Title
%%score { 1 | 2 }
L:1/8
Q:1/4=100
M:4/4
K:F
V:1 treble nm="Grand Piano"
V:2 bass 
V:1
 A2 G>A F2 G>A | B2 A>[FB] [FA]2 [EG]2 | F2 F>F [Fd]2 [DFc]>[DFB] | [FA]2 [FA]>[Fc] [EG]4 | %4
w: J.~R.~Murray * * * * *||||
 A2 G>A F2 G>A | B2 A>B [FA]2 [EG]2 | F2 F>F [Fd]2 [DFc]>[DFB] | [CFA]2 [CEA]>[B,EG] [A,F]4 | %8
w: ||||
 [EG]2 [EG]>[FA] [EG]2 [Gc]>d | e2 d>e [Fd]2 [Ec]2 | [EG]2 [EG]>[FA] [EG]2 [Gc]>d | e2 d>e [Ec]4 | %12
w: ||||
 A2 G>A F2 G>A | B2 A>B [FA]2 [EG]2 | F2 F>F [Fd]2 [DFc]>[DFB] | [CFA]2 [CEA]>[B,EG] [A,F]4 |] %16
w: ||||
V:2
 [F,CF]2 [F,B,F]>[F,CF] [F,A,]2 [F,B,F]>[E,CF] | [F,DF]2 [F,CF]>[E,D] [C,C]2 [C,C]2 | %2
 [D,A,D]2 [D,A,D]>[D,A,D] [B,,B,]2 B,,>B,, | [C,C]2 [C,C]>[C,A,] [C,C]4 | %4
 [F,CF]2 [F,B,F]>[F,CF] [F,A,]2 [F,B,F]>[F,CF] | [F,DF]2 [F,CF]>[F,DF] [C,C]2 [C,C]2 | %6
 [D,A,D]2 [D,A,D]>[D,A,D] [B,,B,]2 B,,>B,, | C,2 C,>C, F,4 | %8
 [C,C]2 [C,C]>[C,C] [C,C]2 [E,C]>[K:treble][G,=B,G] | %9
 [CG]2 [G,=B,F]>[G,B,G][K:bass] [C,C]2 [C,C]2 | %10
 [C,C]2 [C,C]>[C,C] [C,C]2 [E,C]>[K:treble][G,=B,G] | [CG]2 [G,=B,F]>[G,B,G][K:bass] [C,C]4 | %12
 [F,CF]2 [F,B,F]>[F,CF] [F,A,]2 [F,B,F]>[F,CF] | [F,DF]2 [F,CF]>[F,DF] [C,C]2 [C,C]2 | %14
 [D,A,D]2 [D,A,D]>[D,A,D] [B,,B,]2 B,,>B,, | C,2 C,>C, F,4 |] %16

